X:210
T: Cordal
T: Port na Cordaile
S: B.Breathnach: "Ceol Rince na hEireann" II/50
Z: B.Black
L: 1/8
M: 6/8
R: jig
K: D
BAF EDE|FAF DFA|BAF DFA|B2A Bcd|
BAF EDE|FAF DFA|d2f edc|B2A Bcd :|
d2e fed|cBc ecA|dcd fed|f2e fga|
d2e fed|cBc ecA|dfd cec|B2A Bcd :|

